X: 1
T: Come What May
T: 8x32J 3C (RSCDS Bk 51)
P: Mickie Banks
C: Robert Gourlay
C: Arr. T. Traub 8-12-2017
R: jig
M: 6/8
L: 1/8
K: D
|: B |"D"AFA A<dc|"G"BGG e2 d|"A"cAA A<ge|"D"fdd d2 B|"D"AFA A<dc|"G"B2 G e2 d|"A"cBA gfe|"D"fdd d2 :|
f|"D"a2 f dfa|"A"g2 e ceg|"D"f2 d def|"A"ecA A2 f|"D"a2 f dfa|"Em"gfg "A"efg|"D"afd "A"gec |"D"edd d2 f||
"D"a2 f dfa|"A"g2 e ceg|"Bm"fdB "E"Bed|"A"cAA A2 G|"D"FAd FAd|"G"GBe e2 d|"A"cBA gfe|"D"fdd d2 |]
